X:15
T:Beer is Great
C:The Longest Johns
C:arr. by Jupiter
M:4/4
L:1/4
K:Eb
"Eb"G G B z | "Ab"A A c z/ c/ | "Bb"B B c d | "Eb"e B G E |
w:Beer is great, beer is grand, I long to hold one in my hand With
"Eb"G G B G |"Ab"A B c z | "Bb"B B c d | "Eb"e B G E/E/ ||
w:frost-y head and am ber hue, not much that i would-n't  do For a
|:"Eb" G G B z | "Ab" A A c c | "Bb" B B c d  | "Eb" e B G E | 
w:pint of ale or smok-ey stout, beer goes in,  |joy comes out!
w:Beer is great, |beer is swell, I'd throw my mother in~a wish-ing well so
"Eb"G G B G | "Ab" A B c2 | "Bb" B B c d | "Eb" e d e z ||
w:Grab a cask and yank the shive drink 'em up til clos-ing time!
w:I could wish for one pint more; Quaff the drink I do a-dore!
"Cm" c c e c  | "G" d c =B2 | "Cm" c c e c | "G" d c =B B | 
w:Keep your wine It's not for me, keep your rum, I have no need, for
w:Ci-der gin and vod-ka no! Whis-key's good but don't add coke,
"Cm" c c/d/ e c | "Bb" d e "Bb7" f2-  :|
w:Beer is a  wel-come sight to see
w:Ale is a won-drous ma-ster stroke!
"Bb7" f3  G | [M:3/4] "E7" G ^F G | B2 G | "Ab" A G A | c2 A | "Eb" F z F/F/ | F G A | "Eb"  G3 | z2 B |
w: *The world has de-clined the tan-kard and stein, and flocked to the flutes and the shots Our
"Ab" c c c | c3/ d/ e |"Eb" e e e | e2 B/B/ |
w:fa-thers would cry and ex-claim, "Oh god, why?!" We a-
"Ab" c c c | c B3/ c/ | "Bb" B3 | z2 F/F/ |\
w:ban-doned the Rein-heits-ge-bot When the
"Fm" F F G | A z G/F/ | "Cm" G G/ G3/ | G z E/E/ | "Fm"F3/ F/ G | A/ B3/ A | "Cm"G2 z | z2 B |
w: sky, it turns black, and the land, it is parched, and your life be-comes wea-thered and dull, We 
"Ab" c3/ c/ c | c d e | "Eb"e3/ B/ B | "Eb" B z c/d/ | "F7" e c d | e d e | "Bb" f3- | f2 c ||
w:march to the drum of the cask, butt and tun For there's plen-ty of gla-sses to fill!_ 'Cause 
[M:4/4] "Eb" G G B z | "Ab" A A c z | "Bb" B B c d | "Eb" e B G z | 
w:Beer is grand, beer is ace, watch me stick one in my face
G G B G | "Ab" A B c z | "Bb" B B c d | [M:2/4] e B | 
w:Gob-let, glass or plas-tic cup, I don't rea-lly give a...
[M:4/4] "Eb" G G B z | "Ab" A B c2 | "Bb"B B c d | "Eb" e B G z | 
w: Beer is good, if I may, help your hang-ups melt a-way
G G B G | "Ab" A B c2 | "Bb" B B c d | "Eb" [e] [d=A] [e2B2G2] |]
w: Mark my words and mark them well, Beer us great, yes, beer is swell!

